X: 0217
T: Kelso Races -8x32R
P: the Beattys
C: Nan Main
B: Miss Milligan's Miscellany v.2 #0217
B: Originally Ours v.1 p.182 #MMM-0217
Z: 2019 John Chambers <jc:trillian.mit.edu>
M: 4/4
L: 1/8
R: reel
K: A
%
|: E |\
"A"A2EA FAEA | "E7"BcdB "A"c3 (3e/f/g/ |\
"A"a2ec "Bm"fdBf | "A"ecBA "E7"G2FE ||\
"A"A2cA eAaf |
"A"ecBA "E"B2Bc |\
"D"defa "A"eaed | "A"ce"E7"Be "A"A2-A :: e |\
"A"cAeA "E/A"agfe |\
"Bm"dBfB "E7"bagf |
"A"ecaf ecBA | "B"dcBA "E7"G2FE ||\
"A"A2cA "E7"Bcdf | "E7"efge "A"a3g |\
"D"fgaf "A"ea"E7"db | "A"ca"E7"Bg "A"a2-a :|
